X:1
T:Title
%%score { 1 | ( 2 3 ) }
L:1/8
M:4/4
K:C
V:1 treble nm="Grand Piano"
V:2 bass 
V:3 bass 
V:1
 z4 z2 z[Q:1/4=86] [EG] | [EA][EG]EG GF F2 | GBBd [EG][Ec][Ec][Ee] | [EA][EG]EG GF F2 | %4
[M:19/16] GBBd[Ec]/-[Ec]/-[Ec]/-[Ec]/-[Ec]/-[Ec]-<[Ec]E |[M:4/4] EDDD [B,D]GBB | [DB]AAB [CA]GGD | %7
 EDDD [B,D]GBB |[M:7/8] [^Fd]cA B [B,G]3 |] %9
V:2
 z4 z2 z [C,C] | [C,C][C,C][E,G,C][E,G,C] [D,G,B,][D,G,B,] [D,G,B,]2 | %2
 [G,B,F][G,DF][G,DF][G,B,F][K:bass] [C,C][C,G,][C,G,][C,G,] | %3
 [C,C][C,C][E,G,C][E,G,C] [D,G,B,][D,G,B,] [D,G,B,]2 | %4
[M:19/16][K:treble] [G,B,F][G,DF][G,DF][G,B,F][K:bass][C,C]/-[C,C]/-[C,C]/-[C,C]/-[C,C]/-[C,C]-<[C,C][C,G,C] | %5
[M:4/4] CCCC z B,DD | z CCD z B,B,B, | CCCC z B,[K:treble]DG |[M:7/8][K:bass] z EC D G,,3 |] %9
V:3
 x8 | x8 | x4[K:bass] x4 | x8 |[M:19/16][K:treble] x4[K:bass] x11/2 |[M:4/4] [D,^F,]4 [G,,G,]4 | %6
 D,4 G,,4 | [D,^F,]4 ^G,,4[K:treble] |[M:7/8][K:bass] D,- D,3 z z2 |] %9

